X: 1
T: Fairy Dance Reel - Harmony
C: Ed Pearlman
R: reel
Z: 2014 John Chambers <jc:trillian.mit.edu>
B: BSFC Tune Book XXVI-5
B: BSFC Session Tune Book 2016 p.56
M: C|
L: 1/8
K: D
de \
"A"|: "D"d2dA d2dA | "D"d2dA "A7"GAcA | "D"d2dA "G"edcB | "A7"A2G2 "D"FAde :|
"B"|: "D"f2fd "G"g2gf | "Em"e2eA "A7"f2fe | "D"d2dA "G"edcB |["1,2,.." "A7"A2G2 "D"FAde :|["Tag" "A7"A2G2 "D"F2 |]


